packages/ui-icons/svg/Solid/pin.svg

<svg viewBox="0 0 1920 1920" version="1.1" xmlns="http://www.w3.org/2000/svg">
    <path d="M1154.97643,0 L988.342187,166.519325 C927.894178,226.967335 924.906253,319.937752 972.942884,387.166051 L670.358078,689.750857 C666.335872,693.773063 663.807628,698.71463 661.279385,703.541277 C514.066648,642.518667 332.6077,669.295067 216.653249,785.249517 L118.626345,883.391342 L536.935761,1301.58584 L16.8070748,1821.71453 C-5.60235826,1844.12396 -5.60235826,1880.43873 16.8070748,1902.96308 C28.0692514,1914.11034 42.7790331,1919.74143 57.4888147,1919.74143 C72.1985964,1919.74143 86.9083781,1914.11034 98.0556345,1902.96308 L618.184321,1382.8344 L1036.37882,1801.14381 L1134.52064,1703.00199 C1210.48287,1627.15468 1252.31382,1526.13985 1252.31382,1418.68949 C1252.31382,1362.49353 1240.2472,1308.48105 1218.52729,1258.49077 C1221.28537,1256.65205 1224.38821,1255.50285 1226.80154,1252.97461 L1530.76539,949.010759 C1559.95511,970.15607 1594.661,982.107768 1631.43545,982.107768 C1677.51844,982.107768 1720.72843,964.180221 1753.36575,931.542893 L1920,764.908647 L1154.97643,0 Z" stroke="none" stroke-width="1" fill-rule="evenodd"/>
</svg>

<svg viewBox="0 0 1920 1920" xmlns="http://www.w3.org/2000/svg">
    <path d="M1154.976 0 988.342 166.52c-60.448 60.447-63.436 153.418-15.4 220.646L670.359 689.751c-4.022 4.022-6.55 8.964-9.079 13.79-147.212-61.022-328.671-34.246-444.626 81.709l-98.027 98.141 418.31 418.195-520.129 520.129c-22.41 22.409-22.41 58.724 0 81.248 11.262 11.147 25.972 16.778 40.682 16.778s29.42-5.63 40.567-16.778l520.128-520.129 418.195 418.31 98.142-98.142c75.962-75.847 117.793-176.862 117.793-284.313 0-56.195-12.067-110.208-33.787-160.198 2.758-1.839 5.861-2.988 8.275-5.516l303.963-303.964c29.19 21.145 63.896 33.097 100.67 33.097 46.083 0 89.293-17.928 121.93-50.565L1920 764.909 1154.976 0Z" fill-rule="evenodd"/>
</svg>
